build/documents/DirectorySolid.svg

<svg xmlns="http://www.w3.org/2000/svg" fill="none" viewBox="0 0 24 24" focusable="false"><path d="M0 0H24V24H0z"/><path fill="#74767B" fill-rule="evenodd" d="M7.00635 3.02075C5.34949 3.02075 4.00635 4.3639 4.00635 6.02075L4.00635 17.9794C4.00635 19.6363 5.34949 20.9794 7.00635 20.9794L15.9876 20.9794C17.6445 20.9794 18.9876 19.6363 18.9876 17.9794L18.9876 16.4675L20.3686 16.4675C20.7276 16.4675 21.0186 16.1765 21.0186 15.8175C21.0186 15.4585 20.7276 15.1675 20.3686 15.1675L18.9876 15.1675L18.9876 8.86714L20.3686 8.86714C20.7276 8.86714 21.0186 8.57612 21.0186 8.21714C21.0186 7.85815 20.7276 7.56714 20.3686 7.56714L18.9876 7.56714L18.9876 6.02075C18.9876 4.3639 17.6445 3.02075 15.9876 3.02075L7.00635 3.02075ZM11.4624 10.447C11.8214 10.447 12.1124 10.738 12.1124 11.097L12.1124 16.1244C12.1124 16.4834 11.8214 16.7744 11.4624 16.7744C11.1035 16.7744 10.8124 16.4834 10.8124 16.1244L10.8124 11.097C10.8124 10.738 11.1035 10.447 11.4624 10.447ZM10.497 8.10083C10.497 8.65311 10.9447 9.10083 11.497 9.10083C12.0493 9.10083 12.497 8.65311 12.497 8.10083C12.497 7.54855 12.0493 7.10083 11.497 7.10083C10.9447 7.10083 10.497 7.54855 10.497 8.10083Z"/></svg>

<svg xmlns="http://www.w3.org/2000/svg" fill="none" viewBox="0 0 24 24" focusable="false"><path fill="#74767B" fill-rule="evenodd" d="M7 3.02c-1.66 0-3 1.34-3 3v11.95c0 1.66 1.34 3 3 3h8.98c1.66 0 3-1.34 3-3v-1.51h1.38c.36 0 .65-.29.65-.65s-.29-.65-.65-.65h-1.38v-6.3h1.38c.36 0 .65-.29.65-.65s-.29-.65-.65-.65h-1.38V6.02c0-1.66-1.34-3-3-3zm4.46 7.42c.36 0 .65.29.65.65v5.03c0 .36-.29.65-.65.65s-.65-.29-.65-.65v-5.03c0-.36.29-.65.65-.65m-.97-2.34c0 .55.45 1 1 1s1-.45 1-1c0-.56-.45-1-1-1s-1 .44-1 1"/></svg>
